X:1
T:Title
%%score { ( 1 3 ) | ( 2 4 ) }
L:1/8
Q:1/4=100
M:4/4
K:A
V:1 treble nm="Grand Piano"
V:3 treble 
V:2 bass 
V:4 bass 
V:1
 [Ec]4 [CE]2 [Ec]2 | [FB]3 [DF] [FB]4 | A2 G2 A2 B2 | [Ec]8 | [Fd]4 [Ge]2 [Fd]2 | %5
w: Paul~Rader * *|||||
 [Ec]3 [CE] [Ec]4 | [EB]2 [EB]2 [^Dc]3 [DB] | [EB]8 | [Ec]4 [CE]2 [Ec]2 | [FB]3 [DF] [FB]4 | %10
w: |||||
 [EG]2 [EG]2 [FA]2 [FB]2 | [^Ec]8 | e2 [^Ae]2 [Ad]2 [Ac]2 | [FB]3 [Fc] [Fd]4 | %14
w: ||||
 [Ec]2 [EA]2 [DA]2 [DB]2 | [CA]8 | [Ec]4 [Fd]2 [Ec]2 | [^DF]3 [Dc] [DB]4 | B4 c2 B2 | %19
w: |||||
 [CE]3 [CB] [A,A]2- [A,EA]2 | [A,FA]4 [DFB]2 [DFA]2 | [B,^EG]3 [A,FA] [=Ec]4 | %22
w: |||
 [^DF]2 [Dc]2 [Ec]2 [=DB]2 | [CA]8 |] %24
w: ||
V:2
 [A,,A,]4 [A,,A,]2 [A,,A,]2 | [D,A,]3 [D,A,] [D,D]4 | [E,CE]2 [E,B,E]2 [E,F,E]2 [E,G,E]2 | %3
 [A,,A,]8 | [D,A,]4 [D,D]2 [D,A,]2 | [A,,A,]3 [A,,A,] [A,,A,]4 | %6
 [B,,G,]2 [B,,G,]2 [B,,A,]3 [B,,A,] | [E,G,]8 | [A,,A,]4 [A,,A,]2 [A,,A,]2 | %9
 [D,A,]3 [D,A,] [D,D]4 | [E,B,]2 [E,B,]2 [D,B,]2 [D,G,]2 | G,4 z4 | [F,A,F]2 [F,C]2 [F,F]2 [F,E]2 | %13
 [F,D]3 [F,^A,] [B,,B,]4 | [E,A,]2 [C,A,]2 [B,,F,]2 [E,G,]2 | [A,,A,]8 | %16
 [A,,A,]4 [A,,A,]2 [A,,A,]2 | [B,,A,]3 [B,,A,] [B,,A,]4 | [E,G,D]4 [E,G,E]2 [E,G,D]2 | %19
 [A,,A,]3 [A,,A,] A,,2 C,2 | D,4 D,2 D,2 | D,3 D, [A,,A,]4 | [B,,A,]2 [B,,A,]2 [E,A,]2 [E,G,]2 | %23
 [A,,A,]8 |] %24
V:3
 x8 | x8 | x8 | x8 | x8 | x8 | x8 | x8 | x8 | x8 | x8 | z4 C4 | x8 | x8 | x8 | x8 | x8 | x8 | x8 | %19
 z4 C2 z2 | x8 | x8 | x8 | x8 |] %24
V:4
 x8 | x8 | x8 | x8 | x8 | x8 | x8 | x8 | x8 | x8 | x8 | C,8 | x8 | x8 | x8 | x8 | x8 | x8 | x8 | %19
 x8 | x8 | x8 | x8 | x8 |] %24

